X:1
T:Heat Wave
T:Heat Wave
%%score 1 2 3
L:1/8
M:4/4
K:F
V:1 treble nm="Voix - Guit - Tb" snm="Vo."
V:2 treble transpose=-9 nm="Alto Saxophone" snm="A. Sax."
V:3 treble transpose=-2 nm="Tp - Cla - Sax sop - Tub." snm="BaccidentalFlat Tpt."
V:1
 z2 z2 z C |:"Fmaj7""^A" AAAB-"Gm7" B c3- |"Am7" c6"Gm7" z B | AAAG- G C3- | C4 z2 z C | %5
"Fmaj7" AAAB-"F7" B c2 c |"Bb" dddc-"Bbm" c B2 B |"F" AAA"G7"F- F4 |"C7" G2"F" F4 z C |1 %9
"C7" G2"F" F6 :|"Bb""Gm7""^B" d8- |"Cm7" d3 d-"F7" ddcc | B8- | B3 d- ddcc |"Bb" B8- | %15
"Gm7" B3 A-"C7" AAGG |"F""Dm7" F8 |"Gm7" G3 c-"C+" c3"^A" C |"Fmaj7" AAAB-"Gm7" B c3- | %19
"Am7" c6"Gm7" z B |"Fmaj7" AAAG-"Gm7" G C3- |"Am7" C4 z2"Gm7" z C |"Fmaj7" AAAB-"F7" B c2 c | %23
"Bb" dddc-"Bbm" c B2 B |"F" AAAF-"G7" F4 |"C7" G2"F" F4 z z |] %26
V:2
[K:D] z2 z2 z A, |:"Dmaj7" FFFG-"Em7" G A3- |"F#m7" A6"Em7" z G | FFFE- E A,3- | A,4 z2 z A, | %5
"Dmaj7" FFFG-"D7" G A2 A |"G" BBBA-"Gm" A G2 G |"D" FFF"E7"D- D4 |"A7" E2"D" D4 z A, |1 %9
"A7" E2"D" D6 :|"G""Em7" B8- |"Am7" B3 B-"D7" BBAA | G8- | G3 B- BBAA |"G" G8- | %15
"Em7" G3 F-"A7" FFEE |"D""Bm7" D8 |"Em7" E3 A-"A+" A3 A, |"Dmaj7" FFFG-"Em7" G A3- | %19
"F#m7" A6"Em7" z G |"Dmaj7" FFFE-"Em7" E A,3- |"F#m7" A,4 z2"Em7" z A, |"C7" FFFG-"D7" G A2 A | %23
"G" BBBA-"Gm" A G2 G |"D" FFFD-"E7" D4 |"A7" E2"D" D4 z z |] %26
V:3
[K:G] z2 z2 z D |:"Gmaj7" BBBc-"Am7" c d3- |"Bm7" d6"Am7" z c | BBBA- A D3- | D4 z2 z D | %5
"Gmaj7" BBBc-"G7" c d2 d |"C" eeed-"Cm" d c2 c |"G" BBB"A7"G- G4 |"D7" A2"G" G4 z D |1 %9
"D7" A2"G" G6 :|"C""Am7" e8- |"Dm7" e3 e-"G7" eedd | c8- | c3 e- eedd |"C" c8- | %15
"Am7" c3 B-"D7" BBAA |"G""Em7" G8 |"Am7" A3 d-"D+" d3 D |"Gmaj7" BBBc-"Am7" c d3- | %19
"Bm7" d6"Am7" z c |"Gmaj7" BBBA-"Am7" A D3- |"Bm7" D4 z2"Am7" z D |"Gmaj7" BBBc-"G7" c d2 d | %23
"C" eeed-"Cm" d c2 c |"G" BBBG-"A7" G4 |"D7" A2"G" G4 z z |] %26

